static/img/kroki/f5372691eb3dd51d2dcf1f74a2a09450.svg

<?xml version="1.0" encoding="us-ascii" standalone="no"?><svg xmlns="http://www.w3.org/2000/svg" xmlns:xlink="http://www.w3.org/1999/xlink" contentStyleType="text/css" height="1138px" preserveAspectRatio="none" style="width:536px;height:1138px;" version="1.1" viewBox="0 0 536 1138" width="536px" zoomAndPan="magnify"><defs/><g><!--class gcp_deprecation_status--><g id="elem_gcp_deprecation_status"><rect codeLine="22" fill="#3D176E" height="179.2734" id="gcp_deprecation_status" rx="2.5" ry="2.5" style="stroke:#000D19;stroke-width:0.5;" width="237" x="136.5" y="952.01"/><ellipse cx="151.5" cy="971.9045" fill="#ADD1B2" rx="11" ry="11" style="stroke:#181818;stroke-width:1.0;"/><path d="M154.4688,977.5452 Q153.8906,977.842 153.25,977.9827 Q152.6094,978.1389 151.9063,978.1389 Q149.4063,978.1389 148.0781,976.4983 Q146.7656,974.842 146.7656,971.717 Q146.7656,968.592 148.0781,966.9358 Q149.4063,965.2795 151.9063,965.2795 Q152.6094,965.2795 153.25,965.4358 Q153.9063,965.592 154.4688,965.8889 L154.4688,968.6077 Q153.8438,968.0295 153.25,967.7639 Q152.6563,967.4827 152.0313,967.4827 Q150.6875,967.4827 150,968.5608 Q149.3125,969.6233 149.3125,971.717 Q149.3125,973.8108 150,974.8889 Q150.6875,975.9514 152.0313,975.9514 Q152.6563,975.9514 153.25,975.6858 Q153.8438,975.4045 154.4688,974.8264 L154.4688,977.5452 Z " fill="#000000"/><text fill="#D9B8FF" font-family="Helvetica" font-size="17" lengthAdjust="spacing" textLength="195" x="170.5" y="977.7898">gcp_deprecation_status</text><line style="stroke:#000D19;stroke-width:0.5;" x1="137.5" x2="372.5" y1="991.7991" y2="991.7991"/><text fill="#D9B8FF" font-family="sans-serif" font-size="14" font-weight="bold" lengthAdjust="spacing" textLength="60" x="147.5" y="1013.7942">deleted</text><text fill="#D9B8FF" font-family="sans-serif" font-size="14" lengthAdjust="spacing" textLength="48" x="207.5" y="1013.7942">: string</text><text fill="#D9B8FF" font-family="sans-serif" font-size="14" font-weight="bold" lengthAdjust="spacing" textLength="91" x="147.5" y="1040.0911">deprecated</text><text fill="#D9B8FF" font-family="sans-serif" font-size="14" lengthAdjust="spacing" textLength="48" x="238.5" y="1040.0911">: string</text><text fill="#D9B8FF" font-family="sans-serif" font-size="14" font-weight="bold" lengthAdjust="spacing" textLength="69" x="147.5" y="1066.3879">obsolete</text><text fill="#D9B8FF" font-family="sans-serif" font-size="14" lengthAdjust="spacing" textLength="48" x="216.5" y="1066.3879">: string</text><text fill="#D9B8FF" font-family="sans-serif" font-size="14" font-weight="bold" lengthAdjust="spacing" textLength="99" x="147.5" y="1092.6848">replacement</text><text fill="#D9B8FF" font-family="sans-serif" font-size="14" lengthAdjust="spacing" textLength="48" x="246.5" y="1092.6848">: string</text><text fill="#D9B8FF" font-family="sans-serif" font-size="14" font-weight="bold" lengthAdjust="spacing" textLength="40" x="147.5" y="1118.9817">state</text><text fill="#D9B8FF" font-family="sans-serif" font-size="14" lengthAdjust="spacing" textLength="48" x="187.5" y="1118.9817">: string</text></g><!--class gcp_health_check_service--><g id="elem_gcp_health_check_service"><rect codeLine="29" fill="#3D176E" height="179.2734" id="gcp_health_check_service" rx="2.5" ry="2.5" style="stroke:#000D19;stroke-width:0.5;" width="330" x="199" y="712.73"/><ellipse cx="247.75" cy="732.6245" fill="#ADD1B2" rx="11" ry="11" style="stroke:#181818;stroke-width:1.0;"/><path d="M250.7188,738.2652 Q250.1406,738.562 249.5,738.7027 Q248.8594,738.8589 248.1563,738.8589 Q245.6563,738.8589 244.3281,737.2183 Q243.0156,735.562 243.0156,732.437 Q243.0156,729.312 244.3281,727.6558 Q245.6563,725.9995 248.1563,725.9995 Q248.8594,725.9995 249.5,726.1558 Q250.1563,726.312 250.7188,726.6089 L250.7188,729.3277 Q250.0938,728.7495 249.5,728.4839 Q248.9063,728.2027 248.2813,728.2027 Q246.9375,728.2027 246.25,729.2808 Q245.5625,730.3433 245.5625,732.437 Q245.5625,734.5308 246.25,735.6089 Q246.9375,736.6714 248.2813,736.6714 Q248.9063,736.6714 249.5,736.4058 Q250.0938,736.1245 250.7188,735.5464 L250.7188,738.2652 Z " fill="#000000"/><text fill="#D9B8FF" font-family="Helvetica" font-size="17" lengthAdjust="spacing" textLength="214" x="273.25" y="738.5098">gcp_health_check_service</text><line style="stroke:#000D19;stroke-width:0.5;" x1="200" x2="528" y1="752.5191" y2="752.5191"/><text fill="#D9B8FF" font-family="sans-serif" font-size="14" font-weight="bold" lengthAdjust="spacing" textLength="84" x="210" y="774.5142">fingerprint</text><text fill="#D9B8FF" font-family="sans-serif" font-size="14" lengthAdjust="spacing" textLength="48" x="294" y="774.5142">: string</text><text fill="#D9B8FF" font-family="sans-serif" font-size="14" font-weight="bold" lengthAdjust="spacing" textLength="112" x="210" y="800.8111">health_checks</text><text fill="#D9B8FF" font-family="sans-serif" font-size="14" lengthAdjust="spacing" textLength="58" x="322" y="800.8111">: string[]</text><text fill="#D9B8FF" font-family="sans-serif" font-size="14" font-weight="bold" lengthAdjust="spacing" textLength="260" x="210" y="827.1079">health_status_aggregation_policy</text><text fill="#D9B8FF" font-family="sans-serif" font-size="14" lengthAdjust="spacing" textLength="48" x="470" y="827.1079">: string</text><text fill="#D9B8FF" font-family="sans-serif" font-size="14" font-weight="bold" lengthAdjust="spacing" textLength="206" x="210" y="853.4048">network_endpoint_groups</text><text fill="#D9B8FF" font-family="sans-serif" font-size="14" lengthAdjust="spacing" textLength="58" x="416" y="853.4048">: string[]</text><text fill="#D9B8FF" font-family="sans-serif" font-size="14" font-weight="bold" lengthAdjust="spacing" textLength="174" x="210" y="879.7017">notification_endpoints</text><text fill="#D9B8FF" font-family="sans-serif" font-size="14" lengthAdjust="spacing" textLength="58" x="384" y="879.7017">: string[]</text></g><!--class gcp_resource--><g id="elem_gcp_resource"><rect codeLine="36" fill="#3D176E" height="152.9766" id="gcp_resource" rx="2.5" ry="2.5" style="stroke:#000D19;stroke-width:0.5;" width="348" x="7" y="438.76"/><ellipse cx="117.75" cy="458.6545" fill="#ADD1B2" rx="11" ry="11" style="stroke:#181818;stroke-width:1.0;"/><path d="M120.7188,464.2952 Q120.1406,464.592 119.5,464.7327 Q118.8594,464.8889 118.1563,464.8889 Q115.6563,464.8889 114.3281,463.2483 Q113.0156,461.592 113.0156,458.467 Q113.0156,455.342 114.3281,453.6858 Q115.6563,452.0295 118.1563,452.0295 Q118.8594,452.0295 119.5,452.1858 Q120.1563,452.342 120.7188,452.6389 L120.7188,455.3577 Q120.0938,454.7795 119.5,454.5139 Q118.9063,454.2327 118.2813,454.2327 Q116.9375,454.2327 116.25,455.3108 Q115.5625,456.3733 115.5625,458.467 Q115.5625,460.5608 116.25,461.6389 Q116.9375,462.7014 118.2813,462.7014 Q118.9063,462.7014 119.5,462.4358 Q120.0938,462.1545 120.7188,461.5764 L120.7188,464.2952 Z " fill="#000000"/><text fill="#D9B8FF" font-family="Helvetica" font-size="17" lengthAdjust="spacing" textLength="108" x="143.25" y="464.5398">gcp_resource</text><line style="stroke:#000D19;stroke-width:0.5;" x1="8" x2="354" y1="478.5491" y2="478.5491"/><text fill="#D9B8FF" font-family="sans-serif" font-size="14" font-weight="bold" lengthAdjust="spacing" textLength="151" x="18" y="500.5442">deprecation_status</text><text fill="#D9B8FF" font-family="sans-serif" font-size="14" lengthAdjust="spacing" textLength="175" x="169" y="500.5442">: gcp_deprecation_status</text><text fill="#D9B8FF" font-family="sans-serif" font-size="14" font-weight="bold" lengthAdjust="spacing" textLength="89" x="18" y="526.8411">description</text><text fill="#D9B8FF" font-family="sans-serif" font-size="14" lengthAdjust="spacing" textLength="48" x="107" y="526.8411">: string</text><text fill="#D9B8FF" font-family="sans-serif" font-size="14" font-weight="bold" lengthAdjust="spacing" textLength="128" x="18" y="553.1379">label_fingerprint</text><text fill="#D9B8FF" font-family="sans-serif" font-size="14" lengthAdjust="spacing" textLength="48" x="146" y="553.1379">: string</text><text fill="#D9B8FF" font-family="sans-serif" font-size="14" font-weight="bold" lengthAdjust="spacing" textLength="27" x="18" y="579.4348">link</text><text fill="#D9B8FF" font-family="sans-serif" font-size="14" lengthAdjust="spacing" textLength="48" x="45" y="579.4348">: string</text></g><!--class resource--><g id="elem_resource"><rect codeLine="42" fill="#3D176E" height="310.7578" id="resource" rx="2.5" ry="2.5" style="stroke:#000D19;stroke-width:0.5;" width="227" x="67.5" y="7"/><ellipse cx="136.25" cy="26.8945" fill="#ADD1B2" rx="11" ry="11" style="stroke:#181818;stroke-width:1.0;"/><path d="M139.2188,32.5352 Q138.6406,32.832 138,32.9727 Q137.3594,33.1289 136.6563,33.1289 Q134.1563,33.1289 132.8281,31.4883 Q131.5156,29.832 131.5156,26.707 Q131.5156,23.582 132.8281,21.9258 Q134.1563,20.2695 136.6563,20.2695 Q137.3594,20.2695 138,20.4258 Q138.6563,20.582 139.2188,20.8789 L139.2188,23.5977 Q138.5938,23.0195 138,22.7539 Q137.4063,22.4727 136.7813,22.4727 Q135.4375,22.4727 134.75,23.5508 Q134.0625,24.6133 134.0625,26.707 Q134.0625,28.8008 134.75,29.8789 Q135.4375,30.9414 136.7813,30.9414 Q137.4063,30.9414 138,30.6758 Q138.5938,30.3945 139.2188,29.8164 L139.2188,32.5352 Z " fill="#000000"/><text fill="#D9B8FF" font-family="Helvetica" font-size="17" lengthAdjust="spacing" textLength="71" x="161.75" y="32.7798">resource</text><line style="stroke:#000D19;stroke-width:0.5;" x1="68.5" x2="293.5" y1="46.7891" y2="46.7891"/><text fill="#D9B8FF" font-family="sans-serif" font-size="14" font-weight="bold" lengthAdjust="spacing" textLength="29" x="78.5" y="68.7842">age</text><text fill="#D9B8FF" font-family="sans-serif" font-size="14" lengthAdjust="spacing" textLength="66" x="107.5" y="68.7842">: duration</text><text fill="#D9B8FF" font-family="sans-serif" font-size="14" font-weight="bold" lengthAdjust="spacing" textLength="43" x="78.5" y="95.0811">atime</text><text fill="#D9B8FF" font-family="sans-serif" font-size="14" lengthAdjust="spacing" textLength="70" x="121.5" y="95.0811">: datetime</text><text fill="#D9B8FF" font-family="sans-serif" font-size="14" font-weight="bold" lengthAdjust="spacing" textLength="43" x="78.5" y="121.3779">ctime</text><text fill="#D9B8FF" font-family="sans-serif" font-size="14" lengthAdjust="spacing" textLength="70" x="121.5" y="121.3779">: datetime</text><text fill="#D9B8FF" font-family="sans-serif" font-size="14" font-weight="bold" lengthAdjust="spacing" textLength="14" x="78.5" y="147.6748">id</text><text fill="#D9B8FF" font-family="sans-serif" font-size="14" lengthAdjust="spacing" textLength="48" x="92.5" y="147.6748">: string</text><text fill="#D9B8FF" font-family="sans-serif" font-size="14" font-weight="bold" lengthAdjust="spacing" textLength="33" x="78.5" y="173.9717">kind</text><text fill="#D9B8FF" font-family="sans-serif" font-size="14" lengthAdjust="spacing" textLength="48" x="111.5" y="173.9717">: string</text><text fill="#D9B8FF" font-family="sans-serif" font-size="14" font-weight="bold" lengthAdjust="spacing" textLength="90" x="78.5" y="200.2686">last_access</text><text fill="#D9B8FF" font-family="sans-serif" font-size="14" lengthAdjust="spacing" textLength="66" x="168.5" y="200.2686">: duration</text><text fill="#D9B8FF" font-family="sans-serif" font-size="14" font-weight="bold" lengthAdjust="spacing" textLength="90" x="78.5" y="226.5654">last_update</text><text fill="#D9B8FF" font-family="sans-serif" font-size="14" lengthAdjust="spacing" textLength="66" x="168.5" y="226.5654">: duration</text><text fill="#D9B8FF" font-family="sans-serif" font-size="14" font-weight="bold" lengthAdjust="spacing" textLength="48" x="78.5" y="252.8623">mtime</text><text fill="#D9B8FF" font-family="sans-serif" font-size="14" lengthAdjust="spacing" textLength="70" x="126.5" y="252.8623">: datetime</text><text fill="#D9B8FF" font-family="sans-serif" font-size="14" font-weight="bold" lengthAdjust="spacing" textLength="43" x="78.5" y="279.1592">name</text><text fill="#D9B8FF" font-family="sans-serif" font-size="14" lengthAdjust="spacing" textLength="48" x="121.5" y="279.1592">: string</text><text fill="#D9B8FF" font-family="sans-serif" font-size="14" font-weight="bold" lengthAdjust="spacing" textLength="34" x="78.5" y="305.4561">tags</text><text fill="#D9B8FF" font-family="sans-serif" font-size="14" lengthAdjust="spacing" textLength="171" x="112.5" y="305.4561">: dictionary[string, string]</text></g><!--link gcp_health_check_service to gcp_deprecation_status--><g id="link_gcp_health_check_service_gcp_deprecation_status"><path codeLine="54" d="M323.1,892.4 C314.22,911.73 307.3347,926.7278 298.4547,946.0578 " fill="none" id="gcp_health_check_service-to-gcp_deprecation_status" style="stroke:#FFAF37;stroke-width:2.0;"/><polygon fill="#FFAF37" points="295.95,951.51,303.3418,945.0015,298.0372,946.9665,296.0722,941.6619,295.95,951.51" style="stroke:#FFAF37;stroke-width:2.0;"/></g><!--reverse link gcp_resource to gcp_health_check_service--><g id="link_gcp_resource_gcp_health_check_service"><path codeLine="55" d="M239.2816,607.0489 C263.0516,644.0889 282.1,673.77 306.92,712.44 " fill="none" id="gcp_resource-backto-gcp_health_check_service" style="stroke:#FFAF37;stroke-width:2.0;"/><polygon fill="none" points="229.56,591.9,234.232,610.2895,244.3313,603.8084,229.56,591.9" style="stroke:#FFAF37;stroke-width:2.0;"/></g><!--link gcp_resource to gcp_deprecation_status--><g id="link_gcp_resource_gcp_deprecation_status"><path codeLine="56" d="M171.33,591.9 C163.81,668.62 158.21,790.21 182,892.01 C186.71,912.16 192.0387,927.2908 200.8687,946.4508 " fill="none" id="gcp_resource-to-gcp_deprecation_status" style="stroke:#FFAF37;stroke-width:2.0;"/><polygon fill="#FFAF37" points="203.38,951.9,203.2459,942.0521,201.2873,947.359,195.9803,945.4004,203.38,951.9" style="stroke:#FFAF37;stroke-width:2.0;"/></g><!--reverse link resource to gcp_resource--><g id="link_resource_gcp_resource"><path codeLine="57" d="M181,336.04 C181,377.74 181,403.03 181,438.31 " fill="none" id="resource-backto-gcp_resource" style="stroke:#FFAF37;stroke-width:2.0;"/><polygon fill="none" points="181,318.04,175,336.04,187,336.04,181,318.04" style="stroke:#FFAF37;stroke-width:2.0;"/></g><!--SRC=[XPJRYjim48RlzoaCUnSQIBgqsPHIs0PAUxEKRk-MOYRIs1QM9J6IDwI7Twza9xkI3zaxyy-dcNyEk18SCsoCEsODDdiaUsLheGmGDDaTaJxijDIKNHS553UROV2BLkvLu1uQpBwYV48d60o9dvLWjK9hixTHw3EmkYJTAjwdTmJA-X0g5r4x2TRUEKTYtpgCpF3j_hOeXkGmwVKDNs_UumZJn95Eo6gruklj47crrCM-dua7yHkpTJoqU-rmP7DKegCkkWn4P7BKw3a-w_4xS2vKcRsBj1-z9r98YVvG0TU7G1SWRLp6EYJKxcXmD-eAjxUys4p2t-PW5YQNbSpa70qX0oUqogq3rzhipzLYmL6YGxvOVF3fo5lgj1uTo7flTO0JaT18ODZuEqlqK28c_qLMAWJfgfnLoEhS8Zq9XfsPmfD8nZz8ayKFx4layTTBh6yfXx8aBFikZPQ27PD42jr1KvsZuaRxAdcOcHccLDg9GfncTKPJA6w7qEgMJYsCnnpUJI-WmoqZOOAO69MmHvdFpKCALK_CDZ42PJT-tb9NCYXEDBtcLnE-lSOcD96ktPyR7tYpBWV6_2zeKA6Bj8QVLXz5ceaw2fhqbXoKVKR1mZEWusCVUtDYmjnd3sYv_3GtvsHB7_ykbylPEqpP2padyfsb_m00]--></g></svg>

<svg xmlns="http://www.w3.org/2000/svg" width="536" height="1138" viewBox="0 0 536 1138"><rect width="237" height="179.273" x="136.5" y="952.01" fill="#3D176E" rx="2.5" ry="2.5" style="stroke:#000d19;stroke-width:.5"/><circle cx="151.5" cy="971.904" r="11" fill="#ADD1B2" style="stroke:#181818;stroke-width:1"/><path d="M154.469 977.545q-.578.297-1.219.438-.64.156-1.344.156-2.5 0-3.828-1.64-1.312-1.657-1.312-4.782t1.312-4.781q1.328-1.657 3.828-1.657.703 0 1.344.157.656.156 1.219.453v2.719q-.625-.578-1.219-.844-.594-.281-1.219-.281-1.344 0-2.031 1.078-.687 1.062-.687 3.156t.687 3.172q.688 1.062 2.031 1.062.625 0 1.219-.265.594-.282 1.219-.86z"/><text x="170.5" y="977.79" fill="#D9B8FF" font-family="Helvetica" font-size="17" textLength="195">gcp_deprecation_status</text><path d="M137.5 991.799h235" style="stroke:#000d19;stroke-width:.5"/><text x="147.5" y="1013.794" fill="#D9B8FF" font-family="sans-serif" font-size="14" font-weight="bold" textLength="60">deleted</text><text x="207.5" y="1013.794" fill="#D9B8FF" font-family="sans-serif" font-size="14" textLength="48">: string</text><text x="147.5" y="1040.091" fill="#D9B8FF" font-family="sans-serif" font-size="14" font-weight="bold" textLength="91">deprecated</text><text x="238.5" y="1040.091" fill="#D9B8FF" font-family="sans-serif" font-size="14" textLength="48">: string</text><text x="147.5" y="1066.388" fill="#D9B8FF" font-family="sans-serif" font-size="14" font-weight="bold" textLength="69">obsolete</text><text x="216.5" y="1066.388" fill="#D9B8FF" font-family="sans-serif" font-size="14" textLength="48">: string</text><text x="147.5" y="1092.685" fill="#D9B8FF" font-family="sans-serif" font-size="14" font-weight="bold" textLength="99">replacement</text><text x="246.5" y="1092.685" fill="#D9B8FF" font-family="sans-serif" font-size="14" textLength="48">: string</text><text x="147.5" y="1118.982" fill="#D9B8FF" font-family="sans-serif" font-size="14" font-weight="bold" textLength="40">state</text><text x="187.5" y="1118.982" fill="#D9B8FF" font-family="sans-serif" font-size="14" textLength="48">: string</text><rect width="330" height="179.273" x="199" y="712.73" fill="#3D176E" rx="2.5" ry="2.5" style="stroke:#000d19;stroke-width:.5"/><circle cx="247.75" cy="732.625" r="11" fill="#ADD1B2" style="stroke:#181818;stroke-width:1"/><path d="M250.719 738.265q-.578.297-1.219.438-.64.156-1.344.156-2.5 0-3.828-1.64-1.312-1.657-1.312-4.782t1.312-4.781q1.328-1.656 3.828-1.656.703 0 1.344.156.656.156 1.219.453v2.719q-.625-.578-1.219-.844-.594-.281-1.219-.281-1.344 0-2.031 1.078-.687 1.062-.687 3.156t.687 3.172q.688 1.062 2.031 1.062.625 0 1.219-.265.594-.281 1.219-.86z"/><text x="273.25" y="738.51" fill="#D9B8FF" font-family="Helvetica" font-size="17" textLength="214">gcp_health_check_service</text><path d="M200 752.519h328" style="stroke:#000d19;stroke-width:.5"/><text x="210" y="774.514" fill="#D9B8FF" font-family="sans-serif" font-size="14" font-weight="bold" textLength="84">fingerprint</text><text x="294" y="774.514" fill="#D9B8FF" font-family="sans-serif" font-size="14" textLength="48">: string</text><text x="210" y="800.811" fill="#D9B8FF" font-family="sans-serif" font-size="14" font-weight="bold" textLength="112">health_checks</text><text x="322" y="800.811" fill="#D9B8FF" font-family="sans-serif" font-size="14" textLength="58">: string[]</text><text x="210" y="827.108" fill="#D9B8FF" font-family="sans-serif" font-size="14" font-weight="bold" textLength="260">health_status_aggregation_policy</text><text x="470" y="827.108" fill="#D9B8FF" font-family="sans-serif" font-size="14" textLength="48">: string</text><text x="210" y="853.405" fill="#D9B8FF" font-family="sans-serif" font-size="14" font-weight="bold" textLength="206">network_endpoint_groups</text><text x="416" y="853.405" fill="#D9B8FF" font-family="sans-serif" font-size="14" textLength="58">: string[]</text><text x="210" y="879.702" fill="#D9B8FF" font-family="sans-serif" font-size="14" font-weight="bold" textLength="174">notification_endpoints</text><text x="384" y="879.702" fill="#D9B8FF" font-family="sans-serif" font-size="14" textLength="58">: string[]</text><rect width="348" height="152.977" x="7" y="438.76" fill="#3D176E" rx="2.5" ry="2.5" style="stroke:#000d19;stroke-width:.5"/><circle cx="117.75" cy="458.654" r="11" fill="#ADD1B2" style="stroke:#181818;stroke-width:1"/><path d="M120.719 464.295q-.578.297-1.219.438-.64.156-1.344.156-2.5 0-3.828-1.64-1.312-1.657-1.312-4.782t1.312-4.781q1.328-1.656 3.828-1.656.703 0 1.344.156.656.156 1.219.453v2.719q-.625-.579-1.219-.844-.594-.281-1.219-.281-1.344 0-2.031 1.078-.687 1.062-.687 3.156t.687 3.172q.688 1.062 2.031 1.062.625 0 1.219-.265.594-.281 1.219-.86z"/><text x="143.25" y="464.54" fill="#D9B8FF" font-family="Helvetica" font-size="17" textLength="108">gcp_resource</text><path d="M8 478.549h346" style="stroke:#000d19;stroke-width:.5"/><text x="18" y="500.544" fill="#D9B8FF" font-family="sans-serif" font-size="14" font-weight="bold" textLength="151">deprecation_status</text><text x="169" y="500.544" fill="#D9B8FF" font-family="sans-serif" font-size="14" textLength="175">: gcp_deprecation_status</text><text x="18" y="526.841" fill="#D9B8FF" font-family="sans-serif" font-size="14" font-weight="bold" textLength="89">description</text><text x="107" y="526.841" fill="#D9B8FF" font-family="sans-serif" font-size="14" textLength="48">: string</text><text x="18" y="553.138" fill="#D9B8FF" font-family="sans-serif" font-size="14" font-weight="bold" textLength="128">label_fingerprint</text><text x="146" y="553.138" fill="#D9B8FF" font-family="sans-serif" font-size="14" textLength="48">: string</text><text x="18" y="579.435" fill="#D9B8FF" font-family="sans-serif" font-size="14" font-weight="bold" textLength="27">link</text><text x="45" y="579.435" fill="#D9B8FF" font-family="sans-serif" font-size="14" textLength="48">: string</text><rect width="227" height="310.758" x="67.5" y="7" fill="#3D176E" rx="2.5" ry="2.5" style="stroke:#000d19;stroke-width:.5"/><circle cx="136.25" cy="26.895" r="11" fill="#ADD1B2" style="stroke:#181818;stroke-width:1"/><path d="M139.219 32.535q-.578.297-1.219.438-.64.156-1.344.156-2.5 0-3.828-1.64-1.312-1.657-1.312-4.782t1.312-4.781q1.328-1.656 3.828-1.656.703 0 1.344.156.656.156 1.219.453v2.719q-.625-.578-1.219-.844-.594-.281-1.219-.281-1.344 0-2.031 1.078-.687 1.062-.687 3.156t.687 3.172q.688 1.062 2.031 1.062.625 0 1.219-.265.594-.281 1.219-.86z"/><text x="161.75" y="32.78" fill="#D9B8FF" font-family="Helvetica" font-size="17" textLength="71">resource</text><path d="M68.5 46.789h225" style="stroke:#000d19;stroke-width:.5"/><text x="78.5" y="68.784" fill="#D9B8FF" font-family="sans-serif" font-size="14" font-weight="bold" textLength="29">age</text><text x="107.5" y="68.784" fill="#D9B8FF" font-family="sans-serif" font-size="14" textLength="66">: duration</text><text x="78.5" y="95.081" fill="#D9B8FF" font-family="sans-serif" font-size="14" font-weight="bold" textLength="43">atime</text><text x="121.5" y="95.081" fill="#D9B8FF" font-family="sans-serif" font-size="14" textLength="70">: datetime</text><text x="78.5" y="121.378" fill="#D9B8FF" font-family="sans-serif" font-size="14" font-weight="bold" textLength="43">ctime</text><text x="121.5" y="121.378" fill="#D9B8FF" font-family="sans-serif" font-size="14" textLength="70">: datetime</text><text x="78.5" y="147.675" fill="#D9B8FF" font-family="sans-serif" font-size="14" font-weight="bold" textLength="14">id</text><text x="92.5" y="147.675" fill="#D9B8FF" font-family="sans-serif" font-size="14" textLength="48">: string</text><text x="78.5" y="173.972" fill="#D9B8FF" font-family="sans-serif" font-size="14" font-weight="bold" textLength="33">kind</text><text x="111.5" y="173.972" fill="#D9B8FF" font-family="sans-serif" font-size="14" textLength="48">: string</text><text x="78.5" y="200.269" fill="#D9B8FF" font-family="sans-serif" font-size="14" font-weight="bold" textLength="90">last_access</text><text x="168.5" y="200.269" fill="#D9B8FF" font-family="sans-serif" font-size="14" textLength="66">: duration</text><text x="78.5" y="226.565" fill="#D9B8FF" font-family="sans-serif" font-size="14" font-weight="bold" textLength="90">last_update</text><text x="168.5" y="226.565" fill="#D9B8FF" font-family="sans-serif" font-size="14" textLength="66">: duration</text><text x="78.5" y="252.862" fill="#D9B8FF" font-family="sans-serif" font-size="14" font-weight="bold" textLength="48">mtime</text><text x="126.5" y="252.862" fill="#D9B8FF" font-family="sans-serif" font-size="14" textLength="70">: datetime</text><text x="78.5" y="279.159" fill="#D9B8FF" font-family="sans-serif" font-size="14" font-weight="bold" textLength="43">name</text><text x="121.5" y="279.159" fill="#D9B8FF" font-family="sans-serif" font-size="14" textLength="48">: string</text><text x="78.5" y="305.456" fill="#D9B8FF" font-family="sans-serif" font-size="14" font-weight="bold" textLength="34">tags</text><text x="112.5" y="305.456" fill="#D9B8FF" font-family="sans-serif" font-size="14" textLength="171">: dictionary[string, string]</text><path fill="none" d="M323.1 892.4c-8.88 19.33-15.765 34.328-24.645 53.658" style="stroke:#ffaf37;stroke-width:2"/><path fill="#FFAF37" d="m295.95 951.51 7.392-6.509-5.305 1.966-1.965-5.305z" style="stroke:#ffaf37;stroke-width:2"/><path fill="none" d="M239.282 607.049c23.77 37.04 42.818 66.721 67.638 105.391M229.56 591.9l4.672 18.39 10.1-6.482zm-58.23 0c-7.52 76.72-13.12 198.31 10.67 300.11 4.71 20.15 10.039 35.28 18.869 54.44" style="stroke:#ffaf37;stroke-width:2"/><path fill="#FFAF37" d="m203.38 951.9-.134-9.848-1.959 5.307-5.307-1.959z" style="stroke:#ffaf37;stroke-width:2"/><path fill="none" d="M181 336.04v102.27m0-120.27-6 18h12z" style="stroke:#ffaf37;stroke-width:2"/></svg>
